common/src/main/resources/icons/plugins/gradle/expui/gradleLoadChanges.svg

<!--
  - The MIT License (MIT)
  -
  - Copyright (c) 2015-2024 Elior "Mallowigi" Boukhobza
  -
  - Permission is hereby granted, free of charge, to any person obtaining a copy
  - of this software and associated documentation files (the "Software"), to deal
  - in the Software without restriction, including without limitation the rights
  - to use, copy, modify, merge, publish, distribute, sublicense, and/or sell
  - copies of the Software, and to permit persons to whom the Software is
  - furnished to do so, subject to the following conditions:
  -
  - The above copyright notice and this permission notice shall be included in all
  - copies or substantial portions of the Software.
  -
  - THE SOFTWARE IS PROVIDED "AS IS", WITHOUT WARRANTY OF ANY KIND, EXPRESS OR
  - IMPLIED, INCLUDING BUT NOT LIMITED TO THE WARRANTIES OF MERCHANTABILITY,
  - FITNESS FOR A PARTICULAR PURPOSE AND NONINFRINGEMENT. IN NO EVENT SHALL THE
  - AUTHORS OR COPYRIGHT HOLDERS BE LIABLE FOR ANY CLAIM, DAMAGES OR OTHER
  - LIABILITY, WHETHER IN AN ACTION OF CONTRACT, TORT OR OTHERWISE, ARISING FROM,
  - OUT OF OR IN CONNECTION WITH THE SOFTWARE OR THE USE OR OTHER DEALINGS IN THE
  - SOFTWARE.
  -->

<svg data-big="true" xmlns="http://www.w3.org/2000/svg" width="16px" height="16px" viewBox="0 0 16 16">
  <g fill="none" fill-rule="evenodd">
    <path fill="#26A2C1"
          d="M15.6671151,11.7975717 L15.8540408,15.3643272 L14.5314405,14.1725588 C13.7900433,15.0129565 12.7050642,15.5430432 11.4962775,15.5430432 C9.50080187,15.5430432 7.842723,14.0984672 7.51074663,12.1980269 L8.87615993,12.2449578 C9.20417965,13.3860496 10.2557866,14.2208939 11.5023824,14.2208939 C12.319856,14.2208939 13.053479,13.8618879 13.5541884,13.2929387 L12.100285,11.9845013 L15.6671151,11.7975717 Z M11.4962775,7.45090202 C13.465226,7.45090202 15.1056885,8.8573258 15.4678681,10.7203707 L14.1109661,10.6735064 C13.7642059,9.56267007 12.7274504,8.75641118 11.5023824,8.75641118 C10.6489016,8.75641118 9.88682079,9.1477398 9.38578063,9.76075689 L10.8923707,11.1172416 L7.32554064,11.3041713 L7.1386149,7.73741573 L8.40878629,8.88189078 C9.15095746,8.00651073 10.2587332,7.45090202 11.4962775,7.45090202 Z"
          transform="rotate(3 11.496 11.497)"/>
    <path fill="#26A2C1"
          d="M9.42787487,0.55487086 C10.2401494,-0.20360253 11.5073937,-0.18187469 12.2931893,0.603998793 C13.0590071,1.36981657 13.9288605,3.49098732 10.6199497,5.96616818 C10.5509469,6.01784201 10.4851795,6.07323401 10.4225327,6.1320058 C10.0970587,6.04595875 9.75389647,6 9.4,6 C7.59659103,6 6.07192726,7.19345004 5.57271901,8.83363978 C5.47087934,8.99217718 5.40241874,9.17533858 5.37626534,9.37333483 C5.36395257,9.47108314 5.2811619,9.54460619 5.18264348,9.54528259 L5.18264348,9.54528259 L4.29545081,9.54528259 C4.19668756,9.54524711 4.11353423,9.47140199 4.10182896,9.37333483 C4.01364364,8.70572144 3.44445237,8.20677075 2.77103995,8.20677075 C2.09762753,8.20677075 1.52843626,8.70572144 1.44025094,9.37333483 C1.43112735,9.47672935 1.34316578,9.55519867 1.23940439,9.55257448 L1.23940439,9.55257448 L0.331982573,9.55257448 C0.237754938,9.55203422 0.157125946,9.48474235 0.139805659,9.39211904 C-0.37170282,6.72765114 0.57328742,4.62381966 2.11214767,3.52855574 L2.11214767,3.52855574 L2.91697881,4.91714232 C3.1102912,5.2501832 3.46677787,5.45459828 3.85185448,5.45321476 C4.03452433,5.45361645 4.21420142,5.40683073 4.37347753,5.31739048 L4.37347753,5.31739048 L4.75060666,5.10642936 L4.76361111,5.10642936 C5.20864386,4.82945287 5.62834361,4.51371101 6.01781834,4.16288405 C6.05792862,4.12492544 6.07992173,4.07164583 6.07826576,4.01644667 C6.07660978,3.9612475 6.05146232,3.90938211 6.00914871,3.87389621 L6.00914871,3.87389621 L5.95761725,3.84360571 C5.88493164,3.81399396 5.79947859,3.82738374 5.73894508,3.88256585 C5.36890346,4.21100865 4.97155336,4.50732935 4.55120505,4.76831358 L4.55120505,4.76831358 L4.17841074,4.97638483 L4.19430507,4.96482531 L4.17407592,4.97638483 C3.85345705,5.15700394 3.44717836,5.04543852 3.26376422,4.72641034 L3.26376422,4.72641034 L2.41269503,3.25690717 C2.31788626,3.09488633 2.29518131,2.90059086 2.35007893,2.72107566 C2.40497654,2.54156045 2.53247008,2.39319724 2.70168287,2.31191693 C7.66071422,-0.0520036062 9.8454623,4.53423343 11.4825784,2.89856225 C11.9434981,2.46351327 11.9792261,1.74234487 11.5635642,1.26386839 C11.1479023,0.785391909 10.4288221,0.719940295 9.93360359,1.11550727 C9.85552679,1.17462254 9.74584019,1.16722794 9.67640441,1.098168 L9.67640441,1.098168 L9.42787487,0.843858701 C9.38829383,0.806217152 9.3658869,0.753986617 9.3658869,0.69936478 C9.3658869,0.644742944 9.38829383,0.592512409 9.42787487,0.55487086 Z M8.67803747,3.62935407 L8.60005015,3.63829491 C8.41772305,3.67772261 8.28765242,3.83907344 8.28781768,4.02561483 L8.28781768,4.02561483 L8.91925627,4.34205652 C9.0691995,4.23252964 9.12133866,4.03194557 9.04441543,3.86200283 C8.96749221,3.6920601 8.78237725,3.59886721 8.60005015,3.63829491 Z"/>
  </g>
</svg>

<svg xmlns="http://www.w3.org/2000/svg" width="16" height="16" data-big="true"><g fill="#26A2C1" fill-rule="evenodd"><path d="M15.646 12.015v3.572l-1.259-1.26a4.047 4.047 0 0 1-6.908-2.34l1.362.12a2.733 2.733 0 0 0 4.616 1.291l-1.383-1.383zm-3.938-4.559a4.05 4.05 0 0 1 3.795 3.473l-1.353-.118a2.733 2.733 0 0 0-4.67-1.158l1.433 1.433H7.341V7.515L8.55 8.724a4.04 4.04 0 0 1 3.158-1.268"/><path d="M9.428.555a2.06 2.06 0 0 1 2.865.049c.766.766 1.636 2.887-1.673 5.362a2 2 0 0 0-.197.166 4.002 4.002 0 0 0-4.85 2.702c-.102.158-.17.341-.197.54a.2.2 0 0 1-.193.171h-.888a.195.195 0 0 1-.193-.172 1.342 1.342 0 0 0-2.662 0 .197.197 0 0 1-.2.18H.331a.2.2 0 0 1-.192-.16c-.512-2.665.433-4.77 1.972-5.864l.805 1.388a1.076 1.076 0 0 0 1.456.4l.378-.21h.013a9 9 0 0 0 1.254-.944.194.194 0 0 0-.009-.29l-.051-.03a.21.21 0 0 0-.22.04q-.555.493-1.187.885l-.373.208.016-.011-.02.011a.67.67 0 0 1-.91-.25l-.851-1.47a.67.67 0 0 1 .289-.944c4.959-2.364 7.143 2.222 8.78.587a1.182 1.182 0 0 0-1.548-1.783.2.2 0 0 1-.258-.018L9.428.844a.2.2 0 0 1 0-.29m-.75 3.074-.078.01a.396.396 0 0 0-.312.387l.631.316a.396.396 0 0 0-.32-.704Z"/></g></svg>
